@extra/phlat-icons/symbolic-22/subversion.svg

<svg xmlns="http://www.w3.org/2000/svg" version="1.1" viewBox="-2 -2 22 22"><path fill="#f1f2f2" d="m8.5-0.0019531c-0.2375 0-0.4743 0.089522-0.6562 0.27148l-6.5704 6.5703c-0.36389 0.364-0.36389 0.9506 0 1.3145l4.7266 4.7267v-5.881h3v-1h1v-4.8867l-0.8438-0.84377c-0.1819-0.18196-0.4187-0.27148-0.6562-0.27148zm2.5 2.1153v3.8867h1v3h-1v3.881l4.727-4.7267c0.363-0.3639 0.363-0.9505 0-1.3145l-4.727-4.7265zm-4 5.8867v5.881l0.8438 0.844c0.3639 0.364 0.9485 0.364 1.3124 0l0.8438-0.844v-4.881h-1v-1h-2z"/></svg>

<svg xmlns="http://www.w3.org/2000/svg" viewBox="-2 -2 22 22">
    <path fill="#f1f2f2" d="M8.5-.002a.923.923 0 0 0-.656.272l-6.57 6.57a.928.928 0 0 0 0 1.314L6 12.881V7h3V6h1V1.113L9.156.27A.923.923 0 0 0 8.5-.002zM11 2.113V6h1v3h-1v3.881l4.727-4.727a.93.93 0 0 0 0-1.314L11 2.113zM7 8v5.881l.844.844a.925.925 0 0 0 1.312 0l.844-.844V9H9V8H7z"/>
</svg>
